X:187
T:Polska efter Munter Johan
T:(SvL Jämtland 187)
R:Polska
O:Mattmar, Jämtland
B:Svenska Låtar Jämtland
S:Johan Olofsson Munter
M:3/4
L:1/8
U:t=!tenuto!
K:D
vA-|(A{BA})(D C)E- ED-|D>(c d)f (fa-|ta)b (3g(ag) (3f(ed)|ea (3(f{gf})(ed) cA-|
AD (3C(DE) (E<{FE})D-|D>(c d)f (fa-|a)b (3g(ag) (3f(ed)|(e>c) d2 z:|
|:ua|f2 (ea) fd|cA dB (A{BA})G|FG AB cd|(3e(fg) (3(f{gf})(ed) (f>a)|
f>g ea fd|(c{dc})A (d{ed})B AF|(3G(Ac) (3B(A^G) Az|D2-tD2 z:|

